!!!OTL: 910d. Weibersinn.
!!!ODT: 1890
!!!ARE: Europa, Mitteleuropa, Deutschland
!!!SCT: E0910D
!!!TXL: @@DE
!!!YEM: Copyright 1995, estate of Helmut Schaffrath.
**kern	**text
*ICvox	*
*M6/8	*
*k[]	*
*a:	*
=1	=1
!LO:TX:a:t=Tanzmäßig.	!
!LO:TX:a:t=Mündlich vom Hunsrück. 1890.	!
{4c	Bäu-
8c	-rin,
8eL	du
8dJ	.
8c	ſollſt
=2	=2
8aL	hei-
8gJ	.
8f#	-me-
4g}	-gehn,
{8g	dein
=3	=3
8a	Mann
8g	iſt
8f#	ſehr
4g	krank,
8g	dein
=4	=4
8a	Mann
8g	iſt
8f#	ſehr
4g;}	krank.
{8g	Und
=5	=5
8a	iſt
8g	er
8g	ſehr
8eeL	krank,
8ddJ	.
8cc	ſo
=6	=6
8ccL	ſag
8bJ	ich
8b	euch
(8ddL	Dank!
8ccJ)}	.
*clefG2	*
*k[b-]	*
{8cc	Komm,
=7	=7
8ddL	lie-
8ccJ	.
8f	-ber
8eL	Franʒ,
8gJ	.
8cc	noch
=8	=8
8ddL	ei-
8ccJ	.
8e	-nen
8fL	Tanʒ!
8aJ}	.
{8cc	Komm,
=9	=9
8ddL	lie-
8ccJ	.
8f	-ber
8eL	Franʒ,
8gJ	.
8cc	noch
=10	=10
8ddL	ei-
8ccJ	.
8e	-nen
8fL	Tanʒ!
8aJ	.
8r}	.
=11	=11
{8c	Noch
8c	iſt
8e	es
4f	Ʒeit
8f	ʒum
=12	=12
8gL	Hei-
8fJ	.
8g	-me-
4a	-gehn,
8r}	.
=13	=13
{8b-/	noch
8a	iſt
8g	es
4f	Ʒeit
8f	ʒum
=14	=14
8eL	Hei-
8dJ	.
8e	-me-
4f	-gehn.
8r}	.
==	==
!!!AGN: Ehestands - Lied
!! Modulierend
!!!ONB: ESAC (Essen Associative Code) Database: ERK2
!!!AMT: compound duple
!!!AIN: vox
!!!EED: Helmut Schaffrath
!!!EEV: 1.0
!!!GTL: Hochzeits- und Ehrstandslieder, nebst Nonnenklagen
!!!URL-scan: https://rosdok.uni-rostock.de/mcrviewer/recordIdentifier/rosdok_ppn745177662/iview2/phys_0702.iview2?x=176.82851923638077&y=1751.3306338931434&scale=0.7029437510502773&rotation=0&layout=singlePageLayout
!!!ENC: Anna Maria Matuszewska
!!!EEV: 2024/12/18
*-	*-
